packages/ui-icons/svg/Line/ms-ppt.svg

<svg viewBox="0 0 1920 1920" version="1.1" xmlns="http://www.w3.org/2000/svg">
    <path d="M1420.81129,1342.11624 C1450.74071,1297.39153 1468.24659,1243.63153 1468.24659,1185.91859 C1468.24659,1049.59859 1371.11718,935.528 1242.36424,909.325647 L1242.36424,1169.99388 L1420.81129,1342.11624 Z M903.540706,1185.91859 C903.540706,1341.66447 1030.14776,1468.27153 1185.89365,1468.27153 C1243.04188,1468.27153 1296.12424,1450.99153 1340.62306,1421.62682 L1129.42306,1217.99388 L1129.42306,909.325647 C1000.67012,935.528 903.540706,1049.59859 903.540706,1185.91859 Z M1185.89365,790.624471 C1403.87012,790.624471 1581.18776,967.942118 1581.18776,1185.91859 C1581.18776,1403.89506 1403.87012,1581.21271 1185.89365,1581.21271 C967.917176,1581.21271 790.599529,1403.89506 790.599529,1185.91859 C790.599529,967.942118 967.917176,790.624471 1185.89365,790.624471 Z M1355.29412,225.941176 L1355.29412,677.705882 L1807.05882,677.705882 L1807.05882,1694.17647 L112.941176,1694.17647 L112.941176,225.941176 L1355.29412,225.941176 Z M677.647059,677.705882 L338.823529,677.705882 L338.823529,790.647059 L677.647059,790.647059 L677.647059,677.705882 Z M1016.47059,451.823529 L1016.47059,564.764706 L338.823529,564.764706 L338.823529,451.823529 L1016.47059,451.823529 Z M1468.23529,249.32 L1783.68,564.764706 L1468.23529,564.764706 L1468.23529,249.32 Z M1870.41882,491.804706 L1541.19529,162.581176 C1509.68471,131.070588 1465.97647,113 1421.47765,113 L0,113 L0,1807.11765 L1920,1807.11765 L1920,611.522353 C1920,566.345882 1902.38118,523.767059 1870.41882,491.804706 L1870.41882,491.804706 Z" stroke="none" stroke-width="1" fill-rule="evenodd"/>
</svg>

<svg viewBox="0 0 1920 1920" version="1.1" xmlns="http://www.w3.org/2000/svg">
    <path d="M1420.811 1342.116c29.93-44.724 47.436-98.484 47.436-156.197 0-136.32-97.13-250.391-225.883-276.593v260.668l178.447 172.122zm-517.27-156.197c0 155.745 126.607 282.353 282.353 282.353 57.148 0 110.23-17.28 154.73-46.645l-211.2-203.633V909.326c-128.754 26.202-225.883 140.273-225.883 276.593zm282.353-395.295c217.976 0 395.294 177.318 395.294 395.295 0 217.976-177.318 395.294-395.294 395.294-217.977 0-395.294-177.318-395.294-395.294 0-217.977 177.317-395.295 395.294-395.295zM112.94 1694.176V225.941h1242.353v451.765h451.765v1016.47H112.94zm225.883-903.529h338.823V677.706H338.824v112.941zm0-225.882V451.824h677.647v112.94H338.824zM1468.235 249.32l315.445 315.445h-315.445V249.32zm402.184 242.485L1541.195 162.58c-31.51-31.51-75.219-49.581-119.717-49.581H0v1694.118h1920V611.522c0-45.176-17.619-87.755-49.581-119.717z" stroke="none" stroke-width="1" fill-rule="evenodd"/>
</svg>
